X:1
T:Saul’s Journey to Damascus
T:James A. Buchanan, 1895
T:Saul’s Journey to Damascus
T:Public Domain
T:Public Domain
T:Public Domain
C:James A. Buchanan, 1895
Z:Public Domain
%%score ( 1 2 ) ( 3 4 )
L:1/8
M:4/4
K:F
V:1 treble 
V:2 treble 
V:3 bass 
V:4 bass 
V:1
 C>C | [CF]2 ([CF][CF]) [FA]2 [EG]2 | F3 [FG] F2 [CF]>[CF] | [EG]2 [EG][EG] [FA]2 F>[EG] | %4
w: 1.~When the|God were * wor- ship-|ping, In Da- mas- cus|o’er the way, From the blood-|
w: 2.~Then he|art Thou, * Lord, I|pray, And what wilt Thou|me to do?” And the Lord|
w: 3.~Then straight|chief of * sin- ners|go To re- ceive God’s|thro’ His Son; Bless- èd word|
w: 4.~Guilt- y|Lord is * call- ing|thee; Will you hear while|still doth cry? Will you take|
 [FA]6 [FA]>[FB] | [Fc]2 [Fc][FB] [FA]2 ([FA][EG]) | F3 [CE] D2 [DF]D | %7
w: y throng at~Je-|ru- sa- lem, Jour- neyed *|Saul to bring them a-|
w: to him, “A-|rise, I say, ’Twill be *|told thee what thou must|
w: is life to~the|sin- sick soul, From the *|cross to~the bright gold- en|
w: sal- va- tion|so~great and free, While e- *|ter- nity’s draw- ing so|
 C2 (F[FG]) [FA]2 [EG]>[EG] | F6 ||"^Refrain" [FA][FB] | [Fc]2 [Fc][FA] [CF]>[CF] ([FG][FA]) | %11
w: jour- neyed * he heard a|“Saul,|Saul, why|per- se- cut- est Me? I *|
w: ||||
w: ||||
w: hear while * the voice is|“Oh,|ners, oh,|wilt thou come to Me? I *|
 [FB]4 [Fc]3 [FA] | [Fc]3 [Fd] [Fc][FA]F[FA] | [EG]4 [Fc]2 [Fc]>[FB] | [FA]3 [EG] [DF]3 [DF] | %15
w: am the Lord|of Heav’n and earth, I am|sus, who died on|the tree.” * *|
w: ||||
w: ||||
w: am thy light|and sav- ing power, I am|sus, who died on|the tree.” * *|
 [FB]4 [Fd]2 [FB]2 | [FA] [Fc]2 [FA] F2 [EG]>[EG] | F6 |] %18
w: |||
w: |||
w: |||
w: |||
V:2
 C>C | x8 | F3 F2 x3 | x6 F3/2 x/ | x8 | x8 | F3 D2 D x2 | C2 F x5 | F6 || x2 | x8 | x8 | x6 F x | %13
w: peo- ple~of||not far|thirst-|||way. As he|voice say,|oh,||||Je-|
w: said, “Who||now have|said|||do.” * *|||||||
w: way did~the||own word|which|||crown. * *|||||||
w: sin- ner,~the||the voice|His|||nigh? Will you|calling now,|sin-||||Je-|
 x8 | x8 | x8 | x4 F2 x2 | F6 |] %18
w: |||||
w: |||||
w: |||||
w: |||||
V:3
 F,>F, | [F,A,]2 ([F,A,][F,A,]) [C,C]2 [C,C]2 | [F,A,]3 [F,B,] [F,A,]2 [F,A,]>[F,A,] | %3
 [C,C]2 [C,C][C,C] [C,C]2 [D,A,]>[C,B,] | [F,C]6 F,>[F,G,] | %5
 [F,A,]2 [F,A,][F,B,] [F,C]2 ([F,C][C,C]) | [F,B,]3 [A,,C] [B,,D]2 [B,,B,][B,,B,] | %7
 [B,,A,]2 ([C,F,][C,C]) [C,C]2 [C,B,]>[C,B,] | [F,A,]6 || F,[F,G,] | %10
 [F,A,]2 [F,A,][F,C] [F,A,]>[F,A,] ([F,B,][F,C]) | [B,,D]4 [F,C]3 [F,C] | %12
 [F,A,]3 [F,B,] [F,A,][F,C][F,C][F,C] | [C,C]4 [F,A,]2 [F,A,]>[F,B,] | %14
 [F,C]3 [A,,C] [B,,B,]3 [B,,B,] | [B,,D]4 [B,,B,]2 [B,,D]2 | %16
 [C,C] [C,A,]2 [C,C] [C,A,]2 [C,B,]>[C,B,] | [F,A,]6 |] %18
V:4
 F,>F, | x8 | x8 | x8 | x6 F,3/2 x/ | x8 | x8 | x8 | x6 || F, x | x8 | x8 | x8 | x8 | x8 | x8 | %16
 x8 | x6 |] %18

